round/svg/rotate_left.svg

<svg xmlns="http://www.w3.org/2000/svg" width="24" height="24"><path fill="none" d="M0 0h24v24H0V0z"/><g fill="currentColor"><path d="M6.56 7.98C6.1 7.52 5.31 7.6 5 8.17c-.28.51-.5 1.03-.67 1.58-.19.63.31 1.25.96 1.25h.01c.43 0 .82-.28.94-.7.12-.4.28-.79.48-1.17.22-.37.15-.84-.16-1.15zM5.31 13h-.02c-.65 0-1.15.62-.96 1.25.16.54.38 1.07.66 1.58.31.57 1.11.66 1.57.2.3-.31.38-.77.17-1.15-.2-.37-.36-.76-.48-1.16a.97.97 0 0 0-.94-.72zm2.85 6.02c.51.28 1.04.5 1.59.66.62.18 1.24-.32 1.24-.96v-.03c0-.43-.28-.82-.7-.94-.4-.12-.78-.28-1.15-.48a.97.97 0 0 0-1.16.17l-.03.03c-.45.45-.36 1.24.21 1.55zM13 4.07v-.66c0-.89-1.08-1.34-1.71-.71L9.17 4.83c-.4.4-.4 1.04 0 1.43l2.13 2.08c.63.62 1.7.17 1.7-.72V6.09c2.84.48 5 2.94 5 5.91 0 2.73-1.82 5.02-4.32 5.75a.97.97 0 0 0-.68.94v.02c0 .65.61 1.14 1.23.96A7.976 7.976 0 0 0 20 12c0-4.08-3.05-7.44-7-7.93z"/></g></svg>

<?xml version="1.0" encoding="utf-8"?>
<!-- Generator: Adobe Illustrator 19.1.0, SVG Export Plug-In . SVG Version: 6.00 Build 0)  -->
<svg version="1.1" xmlns="http://www.w3.org/2000/svg" xmlns:xlink="http://www.w3.org/1999/xlink" x="0px" y="0px" width="24px"
	 height="24px" viewBox="0 0 24 24" enable-background="new 0 0 24 24" xml:space="preserve">
<g id="Bounding_Boxes">
	<g id="ui_x5F_spec_x5F_header_copy_2">
	</g>
	<path fill="none" d="M0,0h24v24H0V0z"/>
</g>
<g id="Rounded" fill="currentColor">
	<g id="ui_x5F_spec_x5F_header_copy_6">
	</g>
	<path d="M6.56,7.98L6.56,7.98C6.1,7.52,5.31,7.6,5,8.17c-0.28,0.51-0.5,1.03-0.67,1.58C4.14,10.38,4.64,11,5.29,11h0.01
		c0.43,0,0.82-0.28,0.94-0.7c0.12-0.4,0.28-0.79,0.48-1.17C6.94,8.76,6.87,8.29,6.56,7.98z M5.31,13H5.29
		c-0.65,0-1.15,0.62-0.96,1.25c0.16,0.54,0.38,1.07,0.66,1.58c0.31,0.57,1.11,0.66,1.57,0.2l0,0c0.3-0.31,0.38-0.77,0.17-1.15
		c-0.2-0.37-0.36-0.76-0.48-1.16C6.13,13.28,5.74,13,5.31,13z M8.16,19.02c0.51,0.28,1.04,0.5,1.59,0.66
		c0.62,0.18,1.24-0.32,1.24-0.96v-0.03c0-0.43-0.28-0.82-0.7-0.94c-0.4-0.12-0.78-0.28-1.15-0.48c-0.38-0.21-0.86-0.14-1.16,0.17
		l-0.03,0.03C7.5,17.92,7.59,18.71,8.16,19.02z M13,4.07V3.41c0-0.89-1.08-1.34-1.71-0.71L9.17,4.83C8.77,5.23,8.77,5.87,9.17,6.26
		l2.13,2.08C11.93,8.96,13,8.51,13,7.62V6.09c2.84,0.48,5,2.94,5,5.91c0,2.73-1.82,5.02-4.32,5.75C13.27,17.87,13,18.26,13,18.69
		v0.02c0,0.65,0.61,1.14,1.23,0.96C17.57,18.71,20,15.64,20,12C20,7.92,16.95,4.56,13,4.07z"/>
</g>
</svg>
